icons/Mostly Cloudy Night--1504921.svg

<svg enable-background="new 0 0 16 16" viewBox="0 0 16 16" xmlns="http://www.w3.org/2000/svg"><path d="m7.5 16c-4.136 0-7.5-3.364-7.5-7.5s3.364-7.5 7.5-7.5c.234 0 .467.011.701.045.205.03.37.182.416.384s-.037.41-.208.526c-.521.35-.996.812-1.374 1.337-.161.224-.473.274-.697.114-.224-.161-.275-.474-.114-.698.17-.236.354-.459.55-.668-3.244.362-5.774 3.121-5.774 6.46 0 3.584 2.916 6.5 6.5 6.5 1.826 0 3.519-.744 4.731-2.039-1.1.116-2.299-.05-3.333-.503-.253-.111-.367-.406-.257-.659.11-.252.408-.364.659-.257 1.255.551 2.774.594 3.99.157.197-.071.423-.009.557.155.134.165.149.396.038.577-1.372 2.235-3.76 3.569-6.385 3.569z"/><path d="m13.5 11h-7.5c-1.654 0-3-1.346-3-3s1.346-3 3-3h.039c.712-1.225 2.036-2 3.461-2 1.844 0 3.427 1.259 3.871 3.003 1.419-.067 2.629 1.076 2.629 2.497 0 1.379-1.121 2.5-2.5 2.5zm-7.5-5c-1.103 0-2 .897-2 2s.897 2 2 2h7.5c.827 0 1.5-.673 1.5-1.5s-.673-1.5-1.5-1.5c-.146 0-.277.017-.39.05-.141.042-.293.019-.416-.062-.122-.081-.203-.211-.221-.357-.182-1.5-1.46-2.631-2.973-2.631-1.155 0-2.222.68-2.718 1.733-.089.19-.281.307-.498.285-.095-.009-.19-.018-.284-.018z"/></svg>

<?xml version="1.0" encoding="utf-8"?>
<!DOCTYPE svg PUBLIC "-//W3C//DTD SVG 1.0//EN" "http://www.w3.org/TR/2001/REC-SVG-20010904/DTD/svg10.dtd">
<svg    fill="#000000" xmlns="http://www.w3.org/2000/svg" xmlns:xlink="http://www.w3.org/1999/xlink" version="1.1" x="0px" y="0px" viewBox="0 0 16 16" style="enable-background:new 0 0 16 16;" xml:space="preserve"><g><path d="M7.5,16C3.364,16,0,12.636,0,8.5S3.364,1,7.5,1c0.234,0,0.467,0.011,0.701,0.045c0.205,0.03,0.37,0.182,0.416,0.384   S8.58,1.839,8.409,1.955c-0.521,0.35-0.996,0.812-1.374,1.337C6.874,3.516,6.562,3.566,6.338,3.406   C6.114,3.245,6.063,2.932,6.224,2.708c0.17-0.236,0.354-0.459,0.55-0.668C3.53,2.402,1,5.161,1,8.5C1,12.084,3.916,15,7.5,15   c1.826,0,3.519-0.744,4.731-2.039c-1.1,0.116-2.299-0.05-3.333-0.503c-0.253-0.111-0.367-0.406-0.257-0.659   c0.11-0.252,0.408-0.364,0.659-0.257c1.255,0.551,2.774,0.594,3.99,0.157c0.197-0.071,0.423-0.009,0.557,0.155   c0.134,0.165,0.149,0.396,0.038,0.577C12.513,14.666,10.125,16,7.5,16z"></path><path d="M13.5,11H6c-1.654,0-3-1.346-3-3s1.346-3,3-3c0.013,0,0.026,0,0.039,0C6.751,3.775,8.075,3,9.5,3   c1.844,0,3.427,1.259,3.871,3.003C14.79,5.936,16,7.079,16,8.5C16,9.879,14.879,11,13.5,11z M6,6C4.897,6,4,6.897,4,8   c0,1.103,0.897,2,2,2h7.5c0.827,0,1.5-0.673,1.5-1.5S14.327,7,13.5,7c-0.146,0-0.277,0.017-0.39,0.05   c-0.141,0.042-0.293,0.019-0.416-0.062c-0.122-0.081-0.203-0.211-0.221-0.357C12.291,5.131,11.013,4,9.5,4   C8.345,4,7.278,4.68,6.782,5.733C6.693,5.923,6.501,6.04,6.284,6.018C6.189,6.009,6.094,6,6,6z"></path></g></svg>
